svg/ceiling-lamp.svg

<?xml version="1.0" encoding="UTF-8"?>
<!DOCTYPE svg PUBLIC "-//W3C//DTD SVG 1.1//EN" "http://www.w3.org/Graphics/SVG/1.1/DTD/svg11.dtd">
<svg xmlns="http://www.w3.org/2000/svg" xmlns:xlink="http://www.w3.org/1999/xlink" version="1.1"  width="24" height="24" viewBox="0 0 24 24">
    <path fill="#000000" d="M 11 2 L 11 7.6738281 A 3 3 0 0 0 10.5 7.9023438 A 3 3 0 0 0 9.0097656 10.326172 A 10 6.9999995 0 0 0 7 10.9375 A 10 6.9999995 0 0 0 2 17 L 12 17 L 22 17 A 10 6.9999995 0 0 0 17 10.9375 A 10 6.9999995 0 0 0 14.992188 10.328125 A 3 3 0 0 0 13.5 7.9023438 A 3 3 0 0 0 13 7.6757812 L 13 2 L 11 2 z M 9 19 A 3 2.9999998 0 0 0 10.5 21.597656 A 3 2.9999998 0 0 0 13.5 21.597656 A 3 2.9999998 0 0 0 15 19 L 12 19 L 9 19 z " />
</svg>

<?xml version="1.0" encoding="UTF-8"?>
<!DOCTYPE svg PUBLIC "-//W3C//DTD SVG 1.1//EN" "http://www.w3.org/Graphics/SVG/1.1/DTD/svg11.dtd">
<svg xmlns="http://www.w3.org/2000/svg" xmlns:xlink="http://www.w3.org/1999/xlink" version="1.1" width="24" height="24" viewBox="0 0 24 24">
<path d="m11 2v5.6738a3 3 0 0 0 -0.5 0.22852 3 3 0 0 0 -1.4902 2.4238 10 7 0 0 0 -2.0098 0.61133 10 7 0 0 0 -5 6.0625h20a10 7 0 0 0 -5 -6.0625 10 7 0 0 0 -2.0078 -0.60938 3 3 0 0 0 -1.4922 -2.4258 3 3 0 0 0 -0.5 -0.22656v-5.6758h-2zm-2 17a3 3 0 0 0 1.5 2.5977 3 3 0 0 0 3 0 3 3 0 0 0 1.5 -2.5977h-6z"/></svg>
